X: 1690
T: Anthony Frawley's
R: jig
M: 6/8
K: Gmajor
|:GED GBA|GED ~G2A|GED GAB|dBA {d}~B2A|
GED GAB|def ~g2a|bag e/f/ge|1 dBG ABA:|2 dBG ABc||
|:dBd edB|def {b}g2e|~d2d edB|dBG ABc|
~d2d edB|def g2a|bag e/f/ge|1 dBG ABc:|2 dBG ABA||

